gama.ui.shared/icons_svg/dark/gaml/_file.svg

<?xml version="1.0" encoding="UTF-8" standalone="no"?>
<!DOCTYPE svg PUBLIC "-//W3C//DTD SVG 1.1//EN" "http://www.w3.org/Graphics/SVG/1.1/DTD/svg11.dtd">
<svg xmlns:dc="http://purl.org/dc/elements/1.1/" xmlns:xl="http://www.w3.org/1999/xlink" version="1.1" xmlns="http://www.w3.org/2000/svg" viewBox="-525.5871 -2833.0862 24 18" width="24" height="18">
  <defs/>
  <g id="SOURCES" stroke-dasharray="none" stroke="none" stroke-opacity="1" fill="none" fill-opacity="1">
    <title>SOURCES</title>
    <g id="SOURCES_New">
      <title>New</title>
      <g id="Graphic_10143"/>
      <g id="Group_10044">
        <title>document</title>
        <g id="Graphic_10045">
          <path d="M -512.7871 -2828.4622 L -512.7871 -2818.0862 C -512.7871 -2816.9822 -513.6831 -2816.0862 -514.7871 -2816.0862 L -523.5871 -2816.0862 C -524.6911 -2816.0862 -525.5871 -2816.9822 -525.5871 -2818.0862 L -525.5871 -2830.0862 C -525.5871 -2831.1902 -524.6911 -2832.0862 -523.5871 -2832.0862 L -516.4111 -2832.0862 C -516.3071 -2832.0862 -516.1951 -2832.0542 -516.1071 -2831.9662 L -512.9071 -2828.7662 C -512.8191 -2828.6782 -512.7871 -2828.5662 -512.7871 -2828.4622 Z M -516.7871 -2831.2862 L -523.5871 -2831.2862 C -524.2511 -2831.2862 -524.7871 -2830.7502 -524.7871 -2830.0862 L -524.7871 -2818.0862 C -524.7871 -2817.4222 -524.2511 -2816.8862 -523.5871 -2816.8862 L -514.7871 -2816.8862 C -514.1231 -2816.8862 -513.5871 -2817.4222 -513.5871 -2818.0862 L -513.5871 -2828.0862 L -516.3871 -2828.0862 C -516.6111 -2828.0862 -516.7871 -2828.2622 -516.7871 -2828.4862 Z M -515.9871 -2830.7182 L -515.9871 -2828.8862 L -514.1551 -2828.8862 Z M -521.9871 -2825.6862 C -522.2111 -2825.6862 -522.3871 -2825.8622 -522.3871 -2826.0862 C -522.3871 -2826.3102 -522.2111 -2826.4862 -521.9871 -2826.4862 L -516.3871 -2826.4862 C -516.1631 -2826.4862 -515.9871 -2826.3102 -515.9871 -2826.0862 C -515.9871 -2825.8622 -516.1631 -2825.6862 -516.3871 -2825.6862 Z M -521.9871 -2823.2862 C -522.2111 -2823.2862 -522.3871 -2823.4622 -522.3871 -2823.6862 C -522.3871 -2823.9102 -522.2111 -2824.0862 -521.9871 -2824.0862 L -516.3871 -2824.0862 C -516.1631 -2824.0862 -515.9871 -2823.9102 -515.9871 -2823.6862 C -515.9871 -2823.4622 -516.1631 -2823.2862 -516.3871 -2823.2862 Z M -521.9871 -2820.8862 C -522.2111 -2820.8862 -522.3871 -2821.0622 -522.3871 -2821.2862 C -522.3871 -2821.5102 -522.2111 -2821.6862 -521.9871 -2821.6862 L -517.9871 -2821.6862 C -517.7631 -2821.6862 -517.5871 -2821.5102 -517.5871 -2821.2862 C -517.5871 -2821.0622 -517.7631 -2820.8862 -517.9871 -2820.8862 Z" fill="#999"/>
        </g>
      </g>
    </g>
  </g>
</svg>

<svg height="18" viewBox="-525.587 -2833.086 24 18" width="24" xmlns="http://www.w3.org/2000/svg"><path d="m-512.7871-2828.4622v10.376c0 1.104-.896 2-2 2h-8.8c-1.104 0-2-.896-2-2v-12c0-1.104.896-2 2-2h7.176c.104 0 .216.032.304.12l3.2 3.2c.088.088.12.2.12.304zm-4-2.824h-6.8c-.664 0-1.2.536-1.2 1.2v12c0 .664.536 1.2 1.2 1.2h8.8c.664 0 1.2-.536 1.2-1.2v-10h-2.8c-.224 0-.4-.176-.4-.4zm.8.568v1.832h1.832zm-6 5.032c-.224 0-.4-.176-.4-.4s.176-.4.4-.4h5.6c.224 0 .4.176.4.4s-.176.4-.4.4zm0 2.4c-.224 0-.4-.176-.4-.4s.176-.4.4-.4h5.6c.224 0 .4.176.4.4s-.176.4-.4.4zm0 2.4c-.224 0-.4-.176-.4-.4s.176-.4.4-.4h4c.224 0 .4.176.4.4s-.176.4-.4.4z" fill="#999"/></svg>
